evrofasad/img/icons/froze-blue.svg

<svg width="50" height="50" viewBox="0 0 50 50" fill="none" xmlns="http://www.w3.org/2000/svg">
<path d="M3.79359 37.3704V46.2064H12.6296L38.6899 20.1225L29.8539 11.2865L3.79359 37.3704ZM50 39.9859L39.9859 50L27.7333 37.7474L31.9039 33.5768L34.2601 35.9331L40.0801 30.0895L43.426 33.4354L39.9859 36.7813L42.4835 39.1376L45.8294 35.8388L50 39.9859ZM12.2997 22.2432L0 10.0141L10.0141 0L14.1612 4.17059L8.34119 10.0141L10.8624 12.5118L16.6588 6.66824L20.0047 10.0141L16.6588 13.3365L19.0151 15.6927L12.2997 22.2432ZM45.5231 13.2187C46.442 12.2997 46.442 10.8624 45.5231 9.89632L40.0094 4.47691C39.1376 3.55796 37.606 3.55796 36.6871 4.47691L32.3516 8.78888L41.1876 17.6249L45.5231 13.2187Z" fill="#2DB1E6"/>
</svg>

<svg width="50" height="50" fill="none" xmlns="http://www.w3.org/2000/svg"><path d="M3.794 37.37v8.836h8.836l26.06-26.084-8.836-8.835L3.794 37.37zM50 39.986L39.986 50 27.733 37.747l4.17-4.17 2.357 2.356 5.82-5.843 3.346 3.345-3.44 3.346 2.498 2.357 3.345-3.3L50 39.987zM12.3 22.243L0 10.014 10.014 0l4.147 4.17-5.82 5.844 2.521 2.498 5.797-5.844 3.346 3.346-3.346 3.322 2.356 2.357-6.715 6.55zm33.223-9.024c.919-.92.919-2.357 0-3.323l-5.514-5.42c-.871-.918-2.403-.918-3.322 0L32.352 8.79l8.836 8.836 4.335-4.406z" fill="#2DB1E6"/></svg>
